newicons/emoji_snowflake.svg

<?xml version="1.0" encoding="UTF-8" standalone="no"?>
<svg
   version="1.2"
   viewBox="0 0 48 48"
   id="svg15"
   xmlns="http://www.w3.org/2000/svg"
   xmlns:svg="http://www.w3.org/2000/svg">
  <defs
     id="defs1" />
  <path
     d="M 24.000127,5.5000002 V 42.5"
     fill="none"
     stroke="#ffffff"
     stroke-linecap="round"
     stroke-linejoin="round"
     stroke-width="1"
     id="path1"
     style="stroke-width:1;stroke-dasharray:none" />
  <path
     d="M 8.2058479,33.251532 39.794407,14.748469"
     fill="none"
     stroke="#ffffff"
     stroke-linecap="round"
     stroke-linejoin="round"
     stroke-width="1"
     id="path2"
     style="stroke-width:1;stroke-dasharray:none" />
  <path
     d="M 39.794407,33.251532 8.2058479,14.748469"
     fill="none"
     stroke="#ffffff"
     stroke-linecap="round"
     stroke-linejoin="round"
     stroke-width="1"
     id="path3"
     style="stroke-width:1;stroke-dasharray:none" />
  <path
     d="M 14.460071,18.411852 V 11.24138"
     fill="none"
     stroke="#ffffff"
     stroke-linecap="round"
     stroke-linejoin="round"
     stroke-width="1"
     id="path4"
     style="stroke-width:1;stroke-dasharray:none" />
  <path
     d="m 17.594677,9.7792416 6.40545,3.0303644"
     fill="none"
     stroke="#ffffff"
     stroke-linecap="round"
     stroke-linejoin="round"
     stroke-width="1"
     id="path5"
     style="stroke-width:1;stroke-dasharray:none" />
  <path
     d="M 14.460071,18.411852 8.0546219,21.44228"
     fill="none"
     stroke="#ffffff"
     stroke-linecap="round"
     stroke-linejoin="round"
     stroke-width="1"
     id="path6"
     style="stroke-width:1;stroke-dasharray:none" />
  <path
     d="m 30.405577,9.7792416 -6.40545,3.0303644"
     fill="none"
     stroke="#ffffff"
     stroke-linecap="round"
     stroke-linejoin="round"
     stroke-width="1"
     id="path7"
     style="stroke-width:1;stroke-dasharray:none" />
  <path
     d="m 17.594677,38.16762 6.40545,-3.030428"
     fill="none"
     stroke="#ffffff"
     stroke-linecap="round"
     stroke-linejoin="round"
     stroke-width="1"
     id="path8"
     style="stroke-width:1;stroke-dasharray:none" />
  <path
     d="m 30.405577,38.16762 -6.40545,-3.030428"
     fill="none"
     stroke="#ffffff"
     stroke-linecap="round"
     stroke-linejoin="round"
     stroke-width="1"
     id="path9"
     style="stroke-width:1;stroke-dasharray:none" />
  <path
     d="M 14.482012,29.577049 8.0765628,26.546685"
     fill="none"
     stroke="#ffffff"
     stroke-linecap="round"
     stroke-linejoin="round"
     stroke-width="1"
     id="path10"
     style="stroke-width:1;stroke-dasharray:none" />
  <path
     d="m 39.945378,21.44228 -6.40545,-3.030428"
     fill="none"
     stroke="#ffffff"
     stroke-linecap="round"
     stroke-linejoin="round"
     stroke-width="1"
     id="path11"
     style="stroke-width:1;stroke-dasharray:none" />
  <path
     d="m 39.924776,26.546685 -6.405513,3.030364"
     fill="none"
     stroke="#ffffff"
     stroke-linecap="round"
     stroke-linejoin="round"
     stroke-width="1"
     id="path12"
     style="stroke-width:1;stroke-dasharray:none" />
  <path
     d="M 33.519263,36.747521 V 29.577049"
     fill="none"
     stroke="#ffffff"
     stroke-linecap="round"
     stroke-linejoin="round"
     stroke-width="1"
     id="path13"
     style="stroke-width:1;stroke-dasharray:none" />
  <path
     d="M 14.482012,36.747521 V 29.577049"
     fill="none"
     stroke="#ffffff"
     stroke-linecap="round"
     stroke-linejoin="round"
     stroke-width="1"
     id="path14"
     style="stroke-width:1;stroke-dasharray:none" />
  <path
     d="M 33.539928,18.411852 V 11.24138"
     fill="none"
     stroke="#ffffff"
     stroke-linecap="round"
     stroke-linejoin="round"
     stroke-width="1"
     id="path15"
     style="stroke-width:1;stroke-dasharray:none" />
</svg>

<?xml version="1.0" encoding="UTF-8"?><svg id="a" xmlns="http://www.w3.org/2000/svg" viewBox="0 0 48 48"><defs><style>.q{fill:none;stroke:#fff;stroke-linecap:round;stroke-linejoin:round;}</style></defs><path id="b" class="q" d="M24.0001,5.5v37"/><path id="c" class="q" d="M8.2058,33.2515l31.5886-18.5031"/><path id="d" class="q" d="M39.7944,33.2515L8.2058,14.7485"/><path id="e" class="q" d="M14.4601,18.4119v-7.1705"/><path id="f" class="q" d="M17.5947,9.7792l6.4054,3.0304"/><path id="g" class="q" d="M14.4601,18.4119l-6.4054,3.0304"/><path id="h" class="q" d="M30.4056,9.7792l-6.4055,3.0304"/><path id="i" class="q" d="M17.5947,38.1676l6.4054-3.0304"/><path id="j" class="q" d="M30.4056,38.1676l-6.4055-3.0304"/><path id="k" class="q" d="M14.482,29.577l-6.4054-3.0304"/><path id="l" class="q" d="M39.9454,21.4423l-6.4054-3.0304"/><path id="m" class="q" d="M39.9248,26.5467l-6.4055,3.0304"/><path id="n" class="q" d="M33.5193,36.7475v-7.1705"/><path id="o" class="q" d="M14.482,36.7475v-7.1705"/><path id="p" class="q" d="M33.5399,18.4119v-7.1705"/></svg>
